X:28
T: ES LIEGEN DREI JUNGGESELLEN
N: Z0029
O: Europa, Mitteleuropa, Deutschland
R: Sagen - Lied, Romanze, Tod
M: 2/4
L: 1/16
K: Bb
F2 | B2BBB2d2 | B2F2D2
F2 | d3BdBcA | B4z2
Bc | ddddedcB | c3dc2
FA | c2ccdcBA | B2F2D2
F2 | d2dBdccA | B4z2

@@@ Tune index: 9786
